X: 177
T: Trollet i skäkten - stämma
Z:Transcribed to abcby Jon Magnusson 080430
R: Polska
M: 3/4
L: 1/8
K: D
A,F FF AG/2F/2|A,C CC ED/2C/2|A,/2C/2D/2E/2 F/2G/2A/2B/2 cd|ec/2A/2 AF/2E/2 E/2D/2C/2B,/2|
A,F FF AG/2F/2|A,C CC ED/2C/2|A,/2C/2D/2E/2 F/2G/2A/2B/2 cd|eA/2G/2 F4:|
|:f3/2e/2 d/2e/2d/2B/2 F/2G/2F/2D/2|FF F/2E/2C/2E/2 D2|f3/2e/2 d/2e/2d/2A/2 F/2G/2F/2D/2|FF F/2E/2C/2E/2 D2|
A,/2C/2D/2E/2 [FD][FD] [EC][EC]|A,/2C/2D/2E/2 [FD][FD] [EC][EC]|A,/2C/2D/2E/2 [FD][FD] [EC][EC]|A,/2C/2D/2E/2 F/2G/2A/2B/2 cd|eA/2G/2 F4:|
(:musicend:)

Det finns en [[http://www.wachenfeldt.org/resources/PolskaEfterHall.mp3|mp3-fil]] på [[http://www.wachenfeldt.org/lyssna/folkmusik/|Thomas von Wachenfeldts hemsida]].
(:music:)
